dist/img/footer/footer-logo.svg

<svg width="146" height="31" viewBox="0 0 146 31" fill="none" xmlns="http://www.w3.org/2000/svg">
<path d="M6.36 14.76V6.64H10.8C13.96 6.64 15.36 8.16 15.36 10.72C15.36 13.2 13.96 14.76 10.8 14.76H6.36ZM21.12 10.72C21.12 5.88 17.76 2.08 11.04 2.08H0.76V30H6.36V19.28H11.04C18.24 19.28 21.12 14.96 21.12 10.72ZM30.6959 18.96C30.6959 14.68 32.6959 13.4 36.0159 13.4H37.4959V7.52C34.4159 7.52 32.0959 9 30.6959 11.28V7.84H25.0959V30H30.6959V18.96ZM62.6678 18.92C62.6678 11.92 57.6678 7.48 51.2678 7.48C44.8678 7.48 39.8678 11.92 39.8678 18.92C39.8678 25.88 44.7078 30.36 51.1078 30.36C57.5478 30.36 62.6678 25.88 62.6678 18.92ZM45.5478 18.92C45.5478 14.48 48.2278 12.36 51.1878 12.36C54.1478 12.36 56.9078 14.48 56.9078 18.92C56.9078 23.32 54.0678 25.48 51.1078 25.48C48.1078 25.48 45.5478 23.32 45.5478 18.92ZM92.5069 2.04H76.3069V30H92.5069V25.44H81.9069V18.04H91.3069V13.6H81.9069V6.6H92.5069V2.04ZM96.1559 18.84C96.1559 25.76 100.636 30.36 106.276 30.36C109.756 30.36 112.236 28.76 113.556 26.72V30H119.236V0.4H113.556V10.92C112.036 8.84 109.236 7.48 106.316 7.48C100.636 7.48 96.1559 11.92 96.1559 18.84ZM113.596 18.92C113.596 23.12 110.796 25.44 107.716 25.44C104.716 25.44 101.876 23.04 101.876 18.84C101.876 14.64 104.716 12.4 107.716 12.4C110.796 12.4 113.596 14.72 113.596 18.92ZM145.625 7.84H139.985V20.04C139.985 23.6 138.065 25.52 135.025 25.52C132.065 25.52 130.105 23.6 130.105 20.04V7.84H124.505V20.84C124.505 26.92 128.225 30.28 133.385 30.28C136.145 30.28 138.585 29.08 139.985 27.2V30H145.625V7.84Z" fill="white"/>
</svg>

<svg width="146" height="31" fill="none" xmlns="http://www.w3.org/2000/svg"><path d="M6.36 14.76V6.64h4.44c3.16 0 4.56 1.52 4.56 4.08 0 2.48-1.4 4.04-4.56 4.04H6.36Zm14.76-4.04c0-4.84-3.36-8.64-10.08-8.64H.76V30h5.6V19.28h4.68c7.2 0 10.08-4.32 10.08-8.56Zm9.576 8.24c0-4.28 2-5.56 5.32-5.56h1.48V7.52c-3.08 0-5.4 1.48-6.8 3.76V7.84h-5.6V30h5.6V18.96Zm31.972-.04c0-7-5-11.44-11.4-11.44s-11.4 4.44-11.4 11.44c0 6.96 4.84 11.44 11.24 11.44 6.44 0 11.56-4.48 11.56-11.44Zm-17.12 0c0-4.44 2.68-6.56 5.64-6.56 2.96 0 5.72 2.12 5.72 6.56 0 4.4-2.84 6.56-5.8 6.56-3 0-5.56-2.16-5.56-6.56ZM92.507 2.04h-16.2V30h16.2v-4.56h-10.6v-7.4h9.4V13.6h-9.4v-7h10.6V2.04Zm3.649 16.8c0 6.92 4.48 11.52 10.12 11.52 3.48 0 5.96-1.6 7.28-3.64V30h5.68V.4h-5.68v10.52c-1.52-2.08-4.32-3.44-7.24-3.44-5.68 0-10.16 4.44-10.16 11.36Zm17.44.08c0 4.2-2.8 6.52-5.88 6.52-3 0-5.84-2.4-5.84-6.6 0-4.2 2.84-6.44 5.84-6.44 3.08 0 5.88 2.32 5.88 6.52Zm32.029-11.08h-5.64v12.2c0 3.56-1.92 5.48-4.96 5.48-2.96 0-4.92-1.92-4.92-5.48V7.84h-5.6v13c0 6.08 3.72 9.44 8.88 9.44 2.76 0 5.2-1.2 6.6-3.08V30h5.64V7.84Z" fill="#fff"/></svg>
